svg/fluentui-system-icons/ic_fluent_laptop_shield_16_filled.svg

<svg width="16" height="16" viewBox="0 0 16 16" fill="none" xmlns="http://www.w3.org/2000/svg">
<path d="M3 4.5C3 3.67157 3.67157 3 4.5 3H11.5C12.3284 3 13 3.67157 13 4.5V5.9074C12.826 5.77327 12.6521 5.61402 12.4778 5.42731C12.2218 5.15312 11.8701 5.0017 11.5056 5H11.4963C11.1319 5.0017 10.7802 5.15312 10.5241 5.42731C9.80567 6.19681 9.09488 6.49999 8.35196 6.49999C7.54251 6.49999 7.00195 7.18169 7.00195 7.87499V10H4.5C3.67157 10 3 9.32843 3 8.5V4.5ZM7.23696 12C7.14992 11.6785 7.08767 11.3448 7.04919 11H2.5C2.22386 11 2 11.2239 2 11.5C2 11.7761 2.22386 12 2.5 12H7.23696ZM11.501 15C11.4639 14.9999 11.4269 14.9935 11.3913 14.9808C10.6995 14.7337 10.1118 14.4065 9.62985 14.0011L9.62854 14C9.28099 13.7075 8.98848 13.3742 8.75164 13.0011L8.75094 13C8.289 12.2717 8.03904 11.3915 8.00578 10.3647L8.00195 10.1259V7.875C8.00195 7.66789 8.15865 7.5 8.35196 7.5C9.42242 7.5 10.3849 7.04177 11.2551 6.10978C11.323 6.03701 11.4119 6.00042 11.501 6C11.59 6.00042 11.6789 6.03701 11.7469 6.10978C12.6171 7.04177 13.5795 7.5 14.65 7.5C14.8433 7.5 15 7.66789 15 7.875V10.1259L14.9962 10.3647C14.9629 11.3915 14.713 12.2717 14.251 13L14.2503 13.0011C14.0135 13.3742 13.721 13.7075 13.3734 14L13.3721 14.0011C12.8901 14.4065 12.3024 14.7337 11.6107 14.9808C11.5751 14.9935 11.538 14.9999 11.501 15Z" fill="#212121"/>
</svg>

<svg xmlns="http://www.w3.org/2000/svg" width="16" height="16"><path d="M3 4.5A1.5 1.5 0 0 1 4.5 3h7A1.5 1.5 0 0 1 13 4.5v1.407a4.357 4.357 0 0 1-.522-.48A1.337 1.337 0 0 0 11.506 5h-.01a1.338 1.338 0 0 0-.972.427c-.718.77-1.43 1.073-2.172 1.073-.81 0-1.35.682-1.35 1.375V10H4.5A1.5 1.5 0 0 1 3 8.5v-4ZM7.237 12a6.642 6.642 0 0 1-.188-1H2.5a.5.5 0 0 0 0 1h4.737Zm4.264 3a.329.329 0 0 1-.11-.02c-.691-.246-1.28-.574-1.761-.979L9.629 14a4.344 4.344 0 0 1-.877-.999L8.75 13c-.462-.728-.712-1.608-.745-2.635l-.004-.24v-2.25c0-.207.157-.375.35-.375 1.07 0 2.033-.458 2.903-1.39A.337.337 0 0 1 11.5 6c.089 0 .178.037.246.11.87.932 1.832 1.39 2.903 1.39.193 0 .35.168.35.375v2.25l-.004.24c-.033 1.027-.283 1.907-.745 2.635v.001c-.237.373-.53.707-.878.999v.001c-.483.405-1.07.733-1.762.98a.33.33 0 0 1-.11.019Z"/></svg>
